X: 1
T: Eastern
M: 4/4
L: 1/8
R: reel
K: Edor
E2ED EBdB|f2fe [e3A3]e|f3a f3e|defe dBAF|
E2ED EBdB|f2fe [e3A3]e|1 defa f2fe|defe dBAF:|2 defa f2ef|b^gaf gefd||
K:Bmix
|:B2BA Bfaf|Bfaf febg|B2BA Bfaf|gbfa egge|
B2BA Bfaf|Bfaf febg|B2BA Bfaf|fggf effe:|
